static/assets/images/products/kubedb/kubedb-community-icon.svg

<svg width="64" height="64" viewBox="0 0 64 64" fill="none" xmlns="http://www.w3.org/2000/svg">
<path d="M6.66219 58.8078C6.57773 59.6931 6.2476 60.3846 5.67178 60.8824C5.09597 61.3763 4.33013 61.6233 3.37428 61.6233C2.70633 61.6233 2.11708 61.4675 1.60653 61.156C1.09981 60.8406 0.708253 60.3941 0.431862 59.8166C0.15547 59.239 0.0115163 58.5684 0 57.8047V57.0295C0 56.2468 0.140115 55.5572 0.420345 54.9606C0.700576 54.3641 1.10173 53.9043 1.6238 53.5813C2.14971 53.2584 2.75624 53.0969 3.44338 53.0969C4.36852 53.0969 5.11324 53.3458 5.67754 53.8435C6.24184 54.3413 6.57006 55.0442 6.66219 55.9523H5.21113C5.14203 55.3558 4.96545 54.9264 4.68138 54.6642C4.40115 54.3983 3.98848 54.2653 3.44338 54.2653C2.80998 54.2653 2.32246 54.4952 1.98081 54.9549C1.64299 55.4109 1.47025 56.0815 1.46257 56.9668V57.7021C1.46257 58.5988 1.6238 59.2827 1.94626 59.7539C2.27255 60.225 2.74856 60.4606 3.37428 60.4606C3.94626 60.4606 4.3762 60.3333 4.66411 60.0788C4.95202 59.8242 5.13436 59.4005 5.21113 58.8078H6.66219Z" fill="#00A651"/>
<path d="M8.06334 58.3689C8.06334 57.7648 8.18426 57.2214 8.4261 56.7389C8.66795 56.2525 9.00768 55.8801 9.4453 55.6218C9.88292 55.3596 10.3858 55.2285 10.9539 55.2285C11.7946 55.2285 12.476 55.4964 12.9981 56.0321C13.524 56.5679 13.8081 57.2784 13.8503 58.1637L13.856 58.4886C13.856 59.0965 13.737 59.6399 13.499 60.1187C13.2649 60.5974 12.9271 60.9679 12.4856 61.2301C12.048 61.4922 11.5413 61.6233 10.9655 61.6233C10.0864 61.6233 9.38196 61.3345 8.85221 60.757C8.3263 60.1756 8.06334 59.4024 8.06334 58.4373V58.3689ZM9.46257 58.4886C9.46257 59.1231 9.59501 59.6209 9.85988 59.9819C10.1248 60.339 10.4933 60.5176 10.9655 60.5176C11.4376 60.5176 11.8042 60.3352 12.0653 59.9705C12.3301 59.6057 12.4626 59.0718 12.4626 58.3689C12.4626 57.7458 12.3263 57.2518 12.0537 56.887C11.785 56.5223 11.4184 56.3399 10.9539 56.3399C10.4971 56.3399 10.1344 56.5204 9.86564 56.8813C9.59693 57.2385 9.46257 57.7743 9.46257 58.4886Z" fill="#00A651"/>
<path d="M16.8464 55.3425L16.8868 55.9865C17.3244 55.4812 17.9232 55.2285 18.6833 55.2285C19.5163 55.2285 20.0864 55.5439 20.3935 56.1746C20.8464 55.5439 21.4837 55.2285 22.3052 55.2285C22.9923 55.2285 23.5029 55.4166 23.8369 55.7927C24.1747 56.1689 24.3474 56.7237 24.3551 57.457V61.5093H22.9559V57.4969C22.9559 57.1055 22.8695 56.8187 22.6967 56.6363C22.524 56.4539 22.238 56.3627 21.8388 56.3627C21.5202 56.3627 21.2591 56.4482 21.0557 56.6192C20.856 56.7864 20.7159 57.0067 20.6353 57.2803L20.6411 61.5093H19.2418V57.4513C19.2226 56.7256 18.8484 56.3627 18.119 56.3627C17.5585 56.3627 17.1612 56.5888 16.9271 57.0409V61.5093H15.5278V55.3425H16.8464Z" fill="#00A651"/>
<path d="M27.5988 55.3425L27.6392 55.9865C28.0768 55.4812 28.6756 55.2285 29.4357 55.2285C30.2687 55.2285 30.8388 55.5439 31.1459 56.1746C31.5988 55.5439 32.2361 55.2285 33.0576 55.2285C33.7447 55.2285 34.2553 55.4166 34.5893 55.7927C34.9271 56.1689 35.0998 56.7237 35.1075 57.457V61.5093H33.7083V57.4969C33.7083 57.1055 33.6219 56.8187 33.4491 56.6363C33.2764 56.4539 32.9904 56.3627 32.5912 56.3627C32.2726 56.3627 32.0115 56.4482 31.8081 56.6192C31.6084 56.7864 31.4683 57.0067 31.3877 57.2803L31.3935 61.5093H29.9942V57.4513C29.975 56.7256 29.6008 56.3627 28.8714 56.3627C28.3109 56.3627 27.9136 56.5888 27.6795 57.0409V61.5093H26.2802V55.3425H27.5988Z" fill="#00A651"/>
<path d="M40.81 60.9052C40.3992 61.3839 39.8157 61.6233 39.0595 61.6233C38.3839 61.6233 37.8714 61.4276 37.5221 61.0363C37.1766 60.6449 37.0038 60.0788 37.0038 59.3378V55.3425H38.4031V59.3207C38.4031 60.1035 38.7313 60.4948 39.3877 60.4948C40.0672 60.4948 40.5259 60.2535 40.7639 59.771V55.3425H42.1631V61.5093H40.8445L40.81 60.9052Z" fill="#00A651"/>
<path d="M45.3781 55.3425L45.4184 56.0549C45.8791 55.504 46.4837 55.2285 47.2322 55.2285C48.5297 55.2285 49.19 55.9637 49.2131 57.4342V61.5093H47.8138V57.514C47.8138 57.1226 47.7274 56.8339 47.5547 56.6477C47.3858 56.4577 47.1075 56.3627 46.7198 56.3627C46.1555 56.3627 45.7351 56.6154 45.4587 57.1207V61.5093H44.0595V55.3425H45.3781Z" fill="#00A651"/>
<path d="M52.6238 61.5093H51.2246V55.3425H52.6238V61.5093ZM51.1382 53.7409C51.1382 53.5282 51.2054 53.3515 51.3397 53.2109C51.4779 53.0703 51.6737 53 51.9271 53C52.1804 53 52.3762 53.0703 52.5144 53.2109C52.6526 53.3515 52.7217 53.5282 52.7217 53.7409C52.7217 53.9499 52.6526 54.1247 52.5144 54.2653C52.3762 54.4021 52.1804 54.4705 51.9271 54.4705C51.6737 54.4705 51.4779 54.4021 51.3397 54.2653C51.2054 54.1247 51.1382 53.9499 51.1382 53.7409Z" fill="#00A651"/>
<path d="M56.3973 53.8435V55.3425H57.4971V56.3684H56.3973V59.8109C56.3973 60.0465 56.4434 60.2174 56.5355 60.3238C56.6315 60.4264 56.8004 60.4777 57.0422 60.4777C57.2035 60.4777 57.3666 60.4587 57.5317 60.4207V61.4922C57.2131 61.5796 56.9059 61.6233 56.6104 61.6233C55.5355 61.6233 54.9981 61.0363 54.9981 59.8622V56.3684H53.9731V55.3425H54.9981V53.8435H56.3973Z" fill="#00A651"/>
<path d="M61.2418 59.5259L62.5086 55.3425H64L61.524 62.444C61.144 63.4813 60.499 64 59.5892 64C59.3858 64 59.1612 63.9658 58.9155 63.8974V62.8259L59.1804 62.843C59.5336 62.843 59.7985 62.7784 59.975 62.6492C60.1555 62.5238 60.2975 62.3111 60.4011 62.0109L60.6027 61.4808L58.4146 55.3425H59.9232L61.2418 59.5259Z" fill="#00A651"/>
<path d="M51.8559 10.3223V36.4472L31.3496 45.1569V33.6379L42.8665 28.8625V13.9748L51.8559 10.3223Z" fill="#7272E9"/>
<path d="M31.3497 1.33496L51.856 10.3222L42.8666 13.9748L31.3497 8.91968L19.8328 13.9748L11.123 10.3222L31.3497 1.33496Z" fill="#7272E9"/>
<path d="M31.3497 33.6379V45.1569L11.123 36.4472V10.3223L19.8328 13.9748V28.8625L31.3497 33.6379Z" fill="#7272E9"/>
<path d="M53.2607 10.3243V10.0425V9.76072L52.979 9.48105L31.9112 0.209899C31.7555 0.0745424 31.5561 0 31.3498 0C31.1435 0 30.9441 0.0745424 30.7883 0.209899L10.282 8.91961L10.0003 9.19928V9.48105V9.76072V35.8856C9.99487 36.175 10.0708 36.4602 10.2196 36.7085C10.3683 36.9568 10.5837 37.1584 10.8414 37.2903L31.0659 46H32.7481L52.9727 37.2903C53.2306 37.1588 53.4464 36.9573 53.5951 36.7089C53.7439 36.4604 53.8197 36.1751 53.8138 35.8856L53.2523 10.3243H53.2607ZM31.3498 3.01921L47.9239 10.3243L42.8667 12.57L31.9112 7.79462C31.7555 7.65926 31.5561 7.58472 31.3498 7.58472C31.1435 7.58472 30.9441 7.65926 30.7883 7.79462L19.8329 12.2904H19.5511L14.7757 10.3243L31.3498 3.01921ZM29.9451 42.9089L12.5278 35.3158V12.2904L18.4282 14.8137V28.5869C18.4226 28.8763 18.4984 29.1616 18.6472 29.4099C18.7959 29.6583 19.0115 29.8599 19.2693 29.9915L29.9451 34.4747V42.9089ZM31.3498 32.2352L21.2375 28.0297V15.0997L31.3498 10.6039L41.462 15.0997V28.0212L31.3498 32.2352ZM50.1717 35.3158L32.7544 42.9005V34.7628L43.4281 30.2691C43.6863 30.1378 43.9022 29.9364 44.0509 29.6879C44.1997 29.4394 44.2754 29.154 44.2692 28.8645V14.8179L50.1696 12.2946L50.1717 35.3158Z" fill="#4949A3"/>
<path d="M42.8665 28.8624V13.9748L31.3496 8.91968V23.8073L42.8665 28.8624Z" fill="white"/>
<path d="M42.8671 28.8625L31.3502 23.8074L19.8333 28.8625L31.3502 33.6379L42.8671 28.8625Z" fill="white"/>
<path d="M31.3502 23.8073V8.91968L19.8333 13.9748V28.8624L31.3502 23.8073Z" fill="white"/>
<path d="M43.428 12.5701L31.9111 7.79468H30.2289L19.2734 12.5701C18.7099 12.8519 18.1484 13.4112 18.1484 13.9747V28.8624C18.1484 29.426 18.4302 29.9874 19.2734 30.2671L30.7882 35.3158C30.9425 35.4542 31.1425 35.5307 31.3497 35.5307C31.5569 35.5307 31.7568 35.4542 31.9111 35.3158L43.428 30.2692C43.9916 29.9895 44.553 29.4281 44.553 28.8645V13.9768C44.553 13.4133 43.9916 12.8519 43.428 12.5701ZM21.2458 15.0997L29.9534 11.4472V23.2459L21.2458 26.9047V15.0997ZM31.3581 32.2353L23.4916 28.8708L31.3581 25.5064L39.2246 28.8708L31.3581 32.2353ZM41.4704 26.6166L32.7627 22.9641V11.1654L41.4704 14.818V26.6166Z" fill="#4949A3"/>
</svg>

<svg xmlns="http://www.w3.org/2000/svg" width="64" height="64" fill="none" xmlns:v="https://vecta.io/nano"><path d="M6.662 58.808c-.084.885-.415 1.577-.99 2.075s-1.342.741-2.297.741c-.668 0-1.257-.156-1.768-.467s-.898-.762-1.175-1.339S.012 58.57 0 57.806v-.775c0-.783.14-1.472.42-2.069s.681-1.056 1.203-1.379 1.132-.484 1.82-.484c.925 0 1.67.249 2.234.747s.893 1.201.985 2.109H5.211c-.069-.596-.246-1.026-.53-1.288s-.693-.399-1.238-.399c-.633 0-1.121.23-1.463.69s-.511 1.127-.518 2.012v.735c0 .897.161 1.581.484 2.052s.802.707 1.428.707c.572 0 1.002-.127 1.29-.382s.47-.678.547-1.271h1.451zm1.401-.439c0-.604.121-1.147.363-1.63a2.61 2.61 0 0 1 1.019-1.117c.438-.262.941-.393 1.509-.393.841 0 1.522.268 2.044.804s.81 1.246.852 2.132l.006.325c0 .608-.119 1.151-.357 1.63s-.572.849-1.013 1.111-.944.393-1.52.393c-.879 0-1.584-.289-2.113-.866s-.789-1.355-.789-2.32v-.068zm1.399.12c0 .635.132 1.132.397 1.493s.633.536 1.106.536.839-.182 1.1-.547.397-.899.397-1.602c0-.623-.136-1.117-.409-1.482a1.29 1.29 0 0 0-1.1-.547c-.457 0-.82.181-1.088.541s-.403.893-.403 1.607zm7.384-3.146l.04.644c.438-.505 1.036-.758 1.796-.758.833 0 1.403.315 1.71.946.453-.631 1.09-.946 1.912-.946.687 0 1.198.188 1.532.564s.511.931.518 1.664v4.052h-1.399v-4.012c0-.391-.086-.678-.259-.861s-.459-.274-.858-.274c-.319 0-.58.086-.783.257a1.32 1.32 0 0 0-.42.661l.006 4.229h-1.399v-4.058c-.019-.726-.393-1.089-1.123-1.089-.561 0-.958.226-1.192.678v4.468h-1.399v-6.167h1.319zm10.753 0l.04.644c.438-.505 1.036-.758 1.797-.758.833 0 1.403.315 1.71.946.453-.631 1.09-.946 1.912-.946.687 0 1.198.188 1.532.564s.511.931.518 1.664v4.052h-1.399v-4.012c0-.391-.086-.678-.259-.861s-.459-.274-.858-.274c-.319 0-.58.086-.783.257a1.32 1.32 0 0 0-.42.661l.006 4.229h-1.399v-4.058c-.019-.726-.393-1.089-1.123-1.089-.561 0-.958.226-1.192.678v4.468H26.28v-6.167h1.319zm13.211 5.562c-.411.479-.994.718-1.751.718-.676 0-1.188-.196-1.537-.587s-.518-.957-.518-1.698v-3.995h1.399v3.978c0 .783.328 1.174.985 1.174.679 0 1.138-.241 1.376-.724v-4.428h1.399v6.167h-1.319l-.034-.604zm4.568-5.562l.04.712c.461-.551 1.065-.826 1.814-.826 1.297 0 1.958.735 1.981 2.206v4.075h-1.399v-3.995c0-.391-.086-.68-.259-.866s-.447-.285-.835-.285c-.564 0-.985.253-1.261.758v4.389H44.06v-6.167h1.319zm7.246 6.166h-1.399v-6.167h1.399v6.167zm-1.486-7.768c0-.213.067-.389.202-.53s.334-.211.587-.211.449.07.587.211.207.317.207.53a.71.71 0 0 1-.207.524c-.138.14-.334.205-.587.205s-.449-.068-.587-.205a.73.73 0 0 1-.202-.524zm5.259.103v1.499h1.1v1.026h-1.1v3.442c0 .236.046.407.138.513s.265.154.507.154c.161 0 .324-.019.489-.057v1.072a3.48 3.48 0 0 1-.921.131c-1.075 0-1.612-.587-1.612-1.761v-3.494h-1.025v-1.026h1.025v-1.499h1.399zm4.845 5.682l1.267-4.183H64l-2.476 7.102C61.144 63.481 60.499 64 59.589 64a2.53 2.53 0 0 1-.674-.103v-1.072l.265.017c.353 0 .618-.065.795-.194s.322-.338.426-.638l.202-.53-2.188-6.138h1.509l1.319 4.183z" fill="#00a651"/><g fill="#7272e9"><path d="M51.856 10.322v26.125l-20.506 8.71V33.638l11.517-4.775V13.975l8.989-3.652z"/><path d="M31.35 1.335l20.506 8.987-8.989 3.653L31.35 8.92l-11.517 5.055-8.71-3.653L31.35 1.335z"/><path d="M31.35 33.638v11.519l-20.227-8.71V10.322l8.71 3.653v14.888l11.517 4.775z"/></g><path d="M53.261 10.324v-.282-.282l-.282-.28L31.911.21C31.756.075 31.556 0 31.35 0s-.406.075-.561.21L10.282 8.92l-.282.28v.282.28 26.125c-.005.289.071.575.219.823s.364.45.622.582L31.066 46h1.682l20.225-8.71a1.54 1.54 0 0 0 .841-1.405l-.562-25.561h.008zM31.35 3.019l16.574 7.305-5.057 2.246-10.955-4.775c-.156-.135-.355-.21-.561-.21s-.406.075-.561.21L19.833 12.29h-.282l-4.775-1.966L31.35 3.019zm-1.405 39.89l-17.417-7.593V12.29l5.9 2.523v13.773c-.006.289.07.575.219.823s.364.45.622.582l10.676 4.483v8.434zm1.405-10.674L21.238 28.03V15.1l10.112-4.496L41.462 15.1v12.922L31.35 32.235zm18.822 3.081l-17.417 7.585v-8.138l10.674-4.494a1.54 1.54 0 0 0 .841-1.405V14.818l5.9-2.523.002 23.021z" fill="#4949a3"/><g fill="#fff"><path d="M42.867 28.862V13.975L31.35 8.92v14.888l11.517 5.055z"/><path d="M42.867 28.863L31.35 23.807l-11.517 5.055 11.517 4.775 11.517-4.775z"/><path d="M31.35 23.807V8.92l-11.517 5.055v14.888l11.517-5.055z"/></g><path d="M43.428 12.57L31.911 7.795h-1.682L19.273 12.57c-.563.282-1.125.841-1.125 1.405v14.888c0 .564.282 1.125 1.125 1.405l11.515 5.049a.84.84 0 0 0 1.123 0l11.517-5.047c.564-.28 1.125-.841 1.125-1.405V13.977c0-.564-.561-1.125-1.125-1.407zM21.246 15.1l8.708-3.652v11.799l-8.708 3.659V15.1zm10.112 17.136l-7.867-3.365 7.867-3.364 7.867 3.364-7.867 3.365zm10.112-5.619l-8.708-3.652V11.165l8.708 3.653v11.799z" fill="#4949a3"/></svg>
